res/icon/share.svg

<svg t="1602061585256" class="icon" viewBox="0 0 1024 1024" version="1.1" xmlns="http://www.w3.org/2000/svg" p-id="6903" width="81" height="81"><path d="M360.53560797 90.125h302.89362918c94.03905048 0 128.1391919 9.77303018 162.52057233 28.15898291a191.66388931 191.66388931 0 0 1 79.73105274 79.73105274c18.38595273 34.38137961 28.15898291 68.48152185 28.1589829 162.52057232v302.89362918c0 94.03905048-9.77303018 128.1391919-28.15898291 162.52057233a191.66388931 191.66388931 0 0 1-79.73105274 79.73105274c-34.38137961 18.38595273-68.48152185 28.15898291-162.52057232 28.1589829H360.53560797c-94.03905048 0-128.1391919-9.77303018-162.52057232-28.15898291A191.66388931 191.66388931 0 0 1 118.28398291 825.91465461C99.89803017 791.56842905 90.125 757.46828762 90.125 663.42923715V360.53560797c0-94.03905048 9.77303018-128.1391919 28.15898291-162.52057232A191.66388931 191.66388931 0 0 1 198.05019052 118.28398291C232.39641608 99.89803017 266.4965575 90.125 360.53560797 90.125z" fill="#21A905" p-id="6904"></path><path d="M528.2240352 739.52331947a16.33780799 16.33780799 0 0 1-16.24678933-16.337808v-146.35763521c-121.14552961 5.9161984-199.55790721 76.13691628-200.37707414 76.91057385a16.15577173 16.15577173 0 0 1-18.79530561 2.13893228 16.33780799 16.33780799 0 0 1-8.10063997-17.2024832c0.45509228-2.27546027 10.60364693-56.74999147 45.14514131-111.77063146 43.68884587-69.53808001 106.49156267-108.40295039 182.49195201-113.13590826A2514.56616 2514.56616 0 0 1 511.97724587 364.2998432V300.76897921a16.29229868 16.29229868 0 0 1 28.21571307-11.05873922l195.00698559 212.25497814a16.38331733 16.38331733 0 0 1 0 22.20849708l-195.09800426 210.16155412a16.24678933 16.24678933 0 0 1-11.83239576 5.18805014z" fill="#FFFFFF" p-id="6905"></path></svg>

<svg class="icon" viewBox="0 0 1024 1024" xmlns="http://www.w3.org/2000/svg" width="81" height="81"><path d="M360.536 90.125h302.893c94.04 0 128.14 9.773 162.52 28.159a191.664 191.664 0 0179.732 79.731c18.386 34.381 28.159 68.482 28.159 162.52V663.43c0 94.04-9.773 128.14-28.16 162.52a191.664 191.664 0 01-79.73 79.732c-34.382 18.386-68.482 28.159-162.52 28.159H360.535c-94.04 0-128.14-9.773-162.521-28.16a191.664 191.664 0 01-79.731-79.765c-18.386-34.347-28.159-68.447-28.159-162.486V360.536c0-94.04 9.773-128.14 28.159-162.521a191.664 191.664 0 0179.766-79.731c34.346-18.386 68.447-28.159 162.486-28.159z" fill="#21A905"/><path d="M528.224 739.523a16.338 16.338 0 01-16.247-16.337V576.828c-121.145 5.916-199.558 76.137-200.377 76.91a16.156 16.156 0 01-18.795 2.14 16.338 16.338 0 01-8.1-17.203c.454-2.276 10.603-56.75 45.144-111.77 43.69-69.539 106.492-108.404 182.492-113.137a2514.566 2514.566 0 01-.364-49.468v-63.531a16.292 16.292 0 0128.216-11.059L735.2 501.965a16.383 16.383 0 010 22.209L540.102 734.335a16.247 16.247 0 01-11.832 5.188z" fill="#FFF"/></svg>
